Rowaita/24x24/actions/edit-table-insert-row-under.svg

<?xml version='1.0' encoding='ASCII' standalone='yes'?>
<svg xmlns="http://www.w3.org/2000/svg" xmlns:xlink="http://www.w3.org/1999/xlink" version="1.1" width="24px" height="24px">
  <g transform="translate(4.0, 4.0) scale(1 1) ">
    <sodipodi:namedview xmlns:sodipodi="http://sodipodi.sourceforge.net/DTD/sodipodi-0.dtd" xmlns:inkscape="http://www.inkscape.org/namespaces/inkscape" id="namedview9" pagecolor="#ffffff" bordercolor="#000000" borderopacity="0.25" inkscape:showpageshadow="2" inkscape:pageopacity="0.0" inkscape:pagecheckerboard="0" inkscape:deskcolor="#d1d1d1" showgrid="false" inkscape:zoom="22.693708" inkscape:cx="2.2032538" inkscape:cy="10.06887" inkscape:current-layer="svg7"/>
    <defs id="defs3">
      <style id="current-color-scheme" type="text/css">
   .ColorScheme-Text { color:#444444; } .ColorScheme-Highlight { color:#4285f4; }
  </style>
      <style id="current-color-scheme-5356" type="text/css">
   .ColorScheme-Text { color:#444444; } .ColorScheme-Highlight { color:#4285f4; }
  </style>
      <style id="current-color-scheme-535" type="text/css">
   .ColorScheme-Text { color:#444444; } .ColorScheme-Highlight { color:#4285f4; }
  </style>
      <style id="current-color-scheme-53" type="text/css">
   .ColorScheme-Text { color:#444444; } .ColorScheme-Highlight { color:#4285f4; }
  </style>
      <style id="current-color-scheme-5" type="text/css">
   .ColorScheme-Text { color:#444444; } .ColorScheme-Highlight { color:#4285f4; }
  </style>
    </defs>
    <g id="g580">
      <path id="path294" style="fill:#444444;fill-opacity:1" d="M 1 6 L 1 7 L 2.28125 7 L 2 7.28125 L 1 8.28125 L 1 9.71875 L 2 8.71875 L 3.71875 7 L 6.28125 7 L 6 7.28125 L 5 8.28125 L 3.28125 10 L 1 10 L 1 15 L 15 15 L 15 11 L 13 11 L 13 13 L 11 13 L 11 11 L 9 11 L 9 13 L 7 13 L 7 11 L 8 11 L 8 9.28125 L 7.28125 10 L 4.71875 10 L 5 9.71875 L 6 8.71875 L 7.71875 7 L 8 7 L 8 6 L 1 6 z M 3 11 L 5 11 L 5 13 L 3 13 L 3 11 z "/>
      <path style="fill:#444444;fill-opacity:1" d="M 1,1 V 5 H 3 V 3 H 5 V 5 H 7 V 3 h 2 v 2 h 2 V 3 h 2 v 2 h 2 V 1 Z" id="path5"/>
      <path d="m 10,6.999995 v 1.000003 h 0.0052 c -0.0026,0.265625 0.06771,0.5195319 0.190106,0.7070319 l 1.333337,2.0000061 c 0.260417,0.390625 0.682293,0.390625 0.94271,0 L 13.80469,8.7070299 C 13.927088,8.5195299 13.9974,8.265623 13.9974,7.999998 H 14 V 6.999995 Z m 0,0" id="path4" style="fill:#444444;fill-opacity:1;stroke-width:0.816497"/>
    </g>
  </g>
</svg>

<svg xmlns="http://www.w3.org/2000/svg" width="24" height="24" viewBox="0 0 24 24">
 <defs>
  <style id="current-color-scheme" type="text/css">
   .ColorScheme-Text { color:#444444; } .ColorScheme-Highlight { color:#4285f4; }
  </style>
 </defs>
 <path style="fill:currentColor" class="ColorScheme-Text" d="m1 1v4h2v-2h2v2h2v-2h2v2h2v-2h2v2h2v-4h-14zm0 5v1h1.2812l-0.2812 0.2812-1 1v1.4376l1-1 1.7188-1.7188h2.5624l-0.2812 0.2812-1 1-1.7188 1.7188h-2.2812v5h14v-4h-2v2h-2v-2h-2v2h-2v-2h1v-1.7188l-0.7188 0.7188h-2.5624l0.2812-0.2812 1-1 1.7188-1.7188h0.2812v-1h-7zm9 1l2 4 2-4h-4zm-7 4h2v2h-2v-2z" transform="translate(4 4)"/>
</svg>
